img/youtube.svg

<svg width="18" height="12" viewBox="0 0 18 12" fill="none" xmlns="http://www.w3.org/2000/svg">
<g clip-path="url(#clip0_1_7)">
<path d="M11.556 6.408L7.78 8.278C7.69081 8.322 7.59216 8.34338 7.49275 8.34024C7.39334 8.3371 7.29624 8.30954 7.21 8.26C7.12604 8.21329 7.05593 8.14522 7.00675 8.06268C6.95758 7.98014 6.9311 7.88607 6.93 7.79V4.062C6.93 3.87 7.036 3.692 7.21 3.592C7.29602 3.54288 7.39276 3.51556 7.49176 3.51242C7.59077 3.50929 7.68904 3.53043 7.778 3.574L11.555 5.432C11.6475 5.47577 11.7259 5.54461 11.7812 5.6307C11.8365 5.71679 11.8666 5.81667 11.868 5.919C11.868 6.124 11.748 6.313 11.556 6.408ZM17.298 1.03C16.648 0.298 15.45 0 13.158 0H4.842C2.498 0 1.278 0.318 0.632 1.097C0 1.857 0 2.975 0 4.524V7.476C0 10.476 0.749 12 4.842 12H13.158C15.145 12 16.246 11.737 16.958 11.091C17.688 10.429 18 9.348 18 7.476V4.524C18 2.891 17.951 1.765 17.298 1.03Z" fill="#8b008b"/>
</g>
<defs>
<clipPath id="clip0_1_7">
<rect width="18" height="12" fill="white"/>
</clipPath>
</defs>
</svg>

<svg width="18" height="12" fill="none" xmlns="http://www.w3.org/2000/svg"><g clip-path="url(#clip0_1_7)"><path d="M11.556 6.408L7.78 8.278a.606.606 0 01-.57-.018.545.545 0 01-.28-.47V4.062c0-.192.106-.37.28-.47a.607.607 0 01.568-.018l3.777 1.858a.547.547 0 01.313.487c0 .205-.12.394-.312.489zm5.742-5.378C16.648.298 15.45 0 13.158 0H4.842C2.498 0 1.278.318.632 1.097 0 1.857 0 2.975 0 4.524v2.952C0 10.476.749 12 4.842 12h8.316c1.987 0 3.088-.263 3.8-.909.73-.662 1.042-1.743 1.042-3.615V4.524c0-1.633-.049-2.759-.702-3.494z" fill="#8b008b"/></g><defs><clipPath id="clip0_1_7"><path fill="#fff" d="M0 0h18v12H0z"/></clipPath></defs></svg>
